public/operators/withbg/pinnacle.svg

<svg width="150" height="120" viewBox="0 0 150 120" fill="none" xmlns="http://www.w3.org/2000/svg">
<rect width="150" height="120" fill="#0B1526"/>
<path d="M18 73.0063H131V69.4528H18V73.0063Z" fill="#EB622B"/>
<path d="M111.016 47.1333H106.638V65.2123H118.09V61.081H111.016V47.1333Z" fill="white"/>
<path d="M131 51.1367V47.1333H119.198V65.2123H131V61.1907H123.556V58.1196H131V54.1163H123.556V51.1367H131Z" fill="white"/>
<path d="M24.9263 47.1333H18V65.194H22.3774V60.4412H24.9078C29.2298 60.4412 31.9264 57.3702 31.9264 53.7324C31.9264 50.1313 29.2113 47.1333 24.9263 47.1333ZM24.7601 56.4562H22.3774V51.0818H24.7601C26.33 51.0818 27.5121 52.1786 27.5121 53.7873C27.5121 55.3776 26.33 56.4562 24.7601 56.4562Z" fill="white"/>
<path d="M37.4489 47.1333H33.053V65.194H37.4489V47.1333Z" fill="white"/>
<path d="M51.1352 57.9551L43.4147 47.1333H38.7603V65.2123H43.1007V53.6593L51.1352 65.2123H55.4572V47.1333H51.1352V57.9551Z" fill="white"/>
<path d="M81.2417 46L72.0251 65.2123H77.1044L78.0279 63.2381H84.7695L85.693 65.2123H90.7908L81.5557 46H81.2417ZM79.7641 59.4907L81.4079 55.9443L83.0518 59.4907H79.7641Z" fill="white"/>
<path d="M97.3105 61.1724C94.4107 61.1724 92.4344 58.924 92.4344 56.182C92.4344 53.3851 94.4662 51.1367 97.366 51.1367C99.3607 51.1367 100.82 52.1604 101.633 53.7507L105.456 51.356C103.83 48.6872 100.857 46.914 97.329 46.914C91.9542 46.914 87.9832 50.9173 87.9832 56.2003C87.9832 56.2185 87.9832 56.2368 87.9832 56.2551L91.5294 63.6402C93.0624 64.7919 95.0387 65.4865 97.329 65.4865C101.226 65.4865 104.2 63.3843 105.751 60.3864L101.725 58.2476C100.986 59.9294 99.49 61.1724 97.3105 61.1724Z" fill="white"/>
<path d="M73.5208 47.1516H69.1804V57.9551L61.4783 47.1516H56.8054V65.2123H61.1644V53.6593L69.1804 65.2123H70.5102L70.6949 64.7919L73.5208 58.9423V47.1516Z" fill="white"/>
</svg>

<svg xmlns="http://www.w3.org/2000/svg" width="150" height="120" fill="none"><path fill="#0B1526" d="M0 0h150v120H0z"/><path fill="#EB622B" d="M18 73h113v-3.55H18v3.56Z"/><path fill="#fff" d="M111.02 47.13h-4.38v18.08h11.45v-4.13h-7.07V47.13ZM131 51.14v-4h-11.8V65.2H131V61.2h-7.44v-3.07H131v-4h-7.44v-2.98H131ZM24.93 47.13H18V65.2h4.38v-4.75h2.53c4.32 0 7.02-3.07 7.02-6.7 0-3.6-2.72-6.6-7-6.6Zm-.17 9.33h-2.38v-5.38h2.38c1.57 0 2.75 1.1 2.75 2.7s-1.18 2.68-2.75 2.68ZM37.45 47.13h-4.4V65.2h4.4V47.13ZM51.14 57.96 43.4 47.13h-4.65v18.08h4.34V53.66l8.04 11.55h4.32V47.13h-4.32v10.83ZM81.24 46l-9.21 19.21h5.07l.93-1.97h6.74l.92 1.97h5.1L81.56 46h-.32Zm-1.48 13.5 1.65-3.56 1.64 3.55h-3.29ZM97.31 61.17a4.81 4.81 0 0 1-4.88-4.99c0-2.8 2.04-5.04 4.94-5.04 2 0 3.45 1.02 4.26 2.61l3.83-2.4a9.39 9.39 0 0 0-8.13-4.44 9.1 9.1 0 0 0-9.35 9.29v.06l3.55 7.38a9.53 9.53 0 0 0 5.8 1.85c3.9 0 6.87-2.1 8.42-5.1l-4.03-2.14a4.66 4.66 0 0 1-4.4 2.92ZM73.52 47.15h-4.34v10.8l-7.7-10.8H56.8v18.06h4.35V53.66l8.02 11.55h1.33l.18-.42 2.83-5.85V47.15Z"/></svg>
